IMB-X-Files/The-Ambassadors-Assets/65f43207d48584352641670e_regfox.svg

<svg fill="none" height="40" viewBox="0 0 113 40" width="113" xmlns="http://www.w3.org/2000/svg" xmlns:xlink="http://www.w3.org/1999/xlink"><clipPath id="a"><path d="m0 0h113v40h-113z"/></clipPath><g clip-path="url(#a)" fill="#090a0b"><path d="m39.924 20.0883c.5469 0 1-.0593 1.3598-.1786.3593-.1182.6442-.285.8557-.4983.2111-.2138.3553-.4714.4337-.7719.078-.3006.1172-.6337.1172-.9977 0-.301-.0473-.5897-.141-.8669-.0939-.2768-.2538-.5226-.4802-.7364-.2268-.2137-.5392-.38-.9378-.4988-.3985-.1187-.9025-.1786-1.5126-.1786h-2.4142v4.7272zm-6.1662-7.6484h5.9313c1.3134 0 2.3954.1544 3.2476.4632.8511.3084 1.5197.7126 2.0044 1.2114.4842.4988.8201 1.0533 1.0076 1.6627s.2813 1.2078.2813 1.7929c0 1.0931-.1952 2.0117-.5856 2.7557-.3913.7442-1.0478 1.3699-1.9697 1.8766l3.3993 7.1971h-3.7745l-2.8128-6.3658h-3.2821v6.3658h-3.4468z"/><path d="m56.1978 21.8222c0-.8551-.2075-1.5202-.6214-1.9953-.4142-.475-1.0589-.7126-1.934-.7126-.4379 0-.8206.0713-1.1488.2139-.3277.1425-.6059.3361-.8322.5814-.2264.2462-.4027.5313-.5271.8556-.1258.3243-.1961.677-.2115 1.057zm3.0242 3.7054c-.2187 1.3937-.77 2.4507-1.6528 3.171-.8831.7204-2.1685 1.0808-3.8565 1.0808-2.0319 0-3.5595-.5701-4.5833-1.7103-1.0239-1.14-1.5356-2.7553-1.5356-4.8455 0-1.0451.1483-1.9752.4455-2.791.297-.8153.715-1.5082 1.2546-2.0783.5387-.5701 1.1835-1.0013 1.9342-1.2945.7502-.2928 1.5784-.4394 2.4846-.4394 1.8755 0 3.2858.5463 4.2316 1.6389.9459 1.0926 1.4189 2.5648 1.4189 4.418v1.3302h-8.4872c.0315.9976.2812 1.7777.7501 2.3396.4689.5623 1.1722.8433 2.11.8433 1.2971 0 2.0631-.5541 2.2975-1.6628z"/><path d="m69.936 22.7723c0-.7441-.082-1.3457-.2461-1.8052-.1641-.4591-.3792-.8118-.6452-1.0575-.2655-.2453-.5622-.407-.8904-.4865-.3283-.0789-.6565-.1187-.9847-.1187-.3597 0-.6992.0634-1.0198.19-.3205.127-.6019.3325-.8444.6176-.2422.285-.4333.6495-.574 1.0922-.1406.444-.2109.9743-.2109 1.5919 0 1.3146.2462 2.2446.7384 2.7909.4924.5458 1.1056.8195 1.8404.8195.4062 0 .7853-.0594 1.1365-.1786.3522-.1183.6529-.3083.9027-.5701.2502-.2608.4459-.6011.5866-1.0209.1406-.4193.2109-.93.2109-1.5321zm-5.017 7.4109c.0623.3166.1524.5701.2696.7601.1168.19.2732.3403.4689.4513.1952.1106.4297.1859.7034.2256.2732.0393.6055.0594.9962.0594.6096 0 1.0862-.1151 1.4302-.3444.3435-.2298.5978-.5344.7619-.9145.1641-.38.2655-.8157.3048-1.3064.0387-.4906.0586-.9976.0586-1.5202v-.38c-.4067.602-.926 1.0569-1.5591 1.3658-.6329.3088-1.3479.4631-2.1455.4631-1.7191 0-3.0044-.5618-3.8561-1.6864-.8521-1.1241-1.2777-2.6365-1.2777-4.5367 0-.9027.1208-1.7341.3634-2.4941.2421-.7606.5897-1.4134 1.0432-1.9597.4532-.5463 1.0117-.9739 1.6763-1.2826.6641-.3088 1.4102-.4631 2.2384-.4631.6569 0 1.2936.1269 1.9112.38.6172.2535 1.1839.7203 1.6996 1.4014v-1.4014h3.1885v10.665c0 1.0451-.1055 1.9752-.3165 2.791-.211.8148-.5474 1.5082-1.0081 2.0783-.4613.5701-1.0632 1.0009-1.8053 1.2945-.7424.2928-1.6451.4394-2.7078.4394-.9846 0-1.825-.0835-2.5206-.2493-.6956-.1663-1.2696-.4198-1.7227-.7601-.4535-.3408-.8011-.7683-1.0432-1.2831-.2425-.5148-.4026-1.1123-.4806-1.7929z"/><path d="m76.5 12.4399h10.9952v3.0404h-7.502v3.9905h7.0561v3.0404h-7.0561v6.8883h-3.4932z"/><path d="m94.9041 27.1187c.9377 0 1.637-.3404 2.0983-1.021.4602-.681.6911-1.6549.6911-2.9221 0-1.2667-.2309-2.2328-.6911-2.8978-.4613-.6651-1.1606-.9977-2.0983-.9977s-1.6375.3326-2.0983.9977c-.4612.665-.6911 1.6311-.6911 2.8978 0 1.2827.2258 2.2607.6794 2.9335.4532.6733 1.1565 1.0096 2.11 1.0096zm0 2.6602c-1.9693 0-3.4932-.5701-4.5716-1.7101-1.0784-1.1402-1.6177-2.7709-1.6177-4.8932 0-1.0131.1443-1.9275.4338-2.7434.2889-.8154.7033-1.5042 1.2425-2.0665.5396-.5618 1.1916-.9935 1.9576-1.2945.7656-.3006 1.6177-.4508 2.5554-.4508.9531 0 1.8128.1502 2.5789.4508.7655.301 1.4184.7327 1.9578 1.2945.5385.5623.9492 1.2511 1.2302 2.0665.281.8159.423 1.7303.423 2.7434 0 1.0297-.145 1.9523-.434 2.7673-.29.8158-.704 1.5087-1.2434 2.0788-.5385.5701-1.1914 1.0054-1.9569 1.306-.7662.3005-1.6179.4512-2.5556.4512z"/><path d="m105.595 23.0332-4.01-6.0332h3.869l2.086 3.5387 2.345-3.5387h3.423l-3.962 5.8431 4.267 6.5559h-3.799l-2.484-4.038-2.603 4.038h-3.563z"/><path d="m4.02418 22.2969c.01489-3.5661 1.10053-6.5265 4.37683-9.37 1.25425-1.0885 2.71589-2.6621 3.31959-3.63825 3.1397 4.54725-.1908 9.32255-.9581 12.30895-.76686 2.9861-.6654 7.6384 1.9102 10.2298-3.54989 0-8.67376-3.5219-8.64852-9.5305zm25.37612-4.3897c-.0102-.6947-1.5728-.5888-2.9258-.8715-2.7957-.5833-4.1212-3.0847-5.1955-7.3894-.2277-.91219-.8837-1.24702-1.7375-.43851-.9988.94551-2.5249 2.22231-3.1217 2.72151-.3963-2.99878-2.6393-6.40457-4.3764-7.79-.2205-.17541-.5658-.15759-.711.08542-.8088 1.35208-2.082 3.09654-3.99269 4.8031-4.95886 4.42808-7.945716 9.13158-6.75999 15.48908 1.40619 7.4704 7.34068 11.0278 14.39098 10.6025 1.9657-.1182 3.3841-.5011 4.3025-.9126.371-.1663.4274-.7062.0703-.9017-1.9873-1.0895-5.2907-4.0897-5.2812-7.7079.0077-3.028 1.6924-6.569 2.4859-9.4239.8183-.6276 2.174-1.7988 2.8174-2.3716.5266 1.6521 1.348 3.7968 3.5987 5.0479-4.5189 1.031-5.8511 4.6899-5.4088 7.5507.2885 1.8687 1.715 3.012 2.164 2.8435.4504-.1695.3391-1.8733.3931-3.1537.1339-3.1605 1.8124-3.816 6.4354-5.5549 1.674-.63 2.8665-1.6025 2.8523-2.628z"/></g></svg>

<svg width="113" height="40" viewBox="0 0 113 40" fill="none" xmlns="http://www.w3.org/2000/svg">
<g clip-path="url(#clip0_6789_20211)">
<path d="M39.924 20.0883C40.4709 20.0883 40.924 20.029 41.2838 19.9097C41.6431 19.7915 41.928 19.6247 42.1395 19.4114C42.3506 19.1976 42.4948 18.94 42.5732 18.6395C42.6512 18.3389 42.6904 18.0058 42.6904 17.6418C42.6904 17.3408 42.6431 17.0521 42.5494 16.7749C42.4555 16.4981 42.2956 16.2523 42.0692 16.0385C41.8424 15.8248 41.53 15.6585 41.1314 15.5397C40.7329 15.421 40.2289 15.3611 39.6188 15.3611H37.2046V20.0883H39.924ZM33.7578 12.4399H39.6891C41.0025 12.4399 42.0845 12.5943 42.9367 12.9031C43.7878 13.2115 44.4564 13.6157 44.9411 14.1145C45.4253 14.6133 45.7612 15.1678 45.9487 15.7772C46.1362 16.3866 46.23 16.985 46.23 17.5701C46.23 18.6632 46.0348 19.5818 45.6444 20.3258C45.2531 21.07 44.5966 21.6957 43.6747 22.2024L47.074 29.3995H43.2995L40.4867 23.0337H37.2046V29.3995H33.7578V12.4399Z" fill="#090A0B"/>
<path d="M56.1978 21.8222C56.1978 20.9671 55.9903 20.302 55.5764 19.8269C55.1622 19.3519 54.5175 19.1143 53.6424 19.1143C53.2045 19.1143 52.8218 19.1856 52.4936 19.3282C52.1659 19.4707 51.8877 19.6643 51.6614 19.9096C51.435 20.1558 51.2587 20.4409 51.1343 20.7652C51.0085 21.0895 50.9382 21.4422 50.9228 21.8222H56.1978ZM59.222 25.5276C59.0033 26.9213 58.452 27.9783 57.5692 28.6986C56.6861 29.419 55.4007 29.7794 53.7127 29.7794C51.6808 29.7794 50.1532 29.2093 49.1294 28.0691C48.1055 26.9291 47.5938 25.3138 47.5938 23.2236C47.5938 22.1785 47.7421 21.2484 48.0393 20.4326C48.3363 19.6173 48.7543 18.9244 49.2939 18.3543C49.8326 17.7842 50.4774 17.353 51.2281 17.0598C51.9783 16.767 52.8065 16.6204 53.7127 16.6204C55.5882 16.6204 56.9985 17.1667 57.9443 18.2593C58.8902 19.3519 59.3632 20.8241 59.3632 22.6773V24.0075H50.876C50.9075 25.0051 51.1572 25.7852 51.6261 26.3471C52.095 26.9094 52.7983 27.1904 53.7361 27.1904C55.0332 27.1904 55.7992 26.6363 56.0336 25.5276H59.222Z" fill="#090A0B"/>
<path d="M69.936 22.7723C69.936 22.0282 69.854 21.4266 69.6899 20.9671C69.5258 20.508 69.3107 20.1553 69.0447 19.9096C68.7792 19.6643 68.4825 19.5026 68.1543 19.4231C67.826 19.3442 67.4978 19.3044 67.1696 19.3044C66.8099 19.3044 66.4704 19.3678 66.1498 19.4944C65.8293 19.6214 65.5479 19.8269 65.3054 20.112C65.0632 20.397 64.8721 20.7615 64.7314 21.2042C64.5908 21.6482 64.5205 22.1785 64.5205 22.7961C64.5205 24.1107 64.7667 25.0407 65.2589 25.587C65.7513 26.1328 66.3645 26.4065 67.0993 26.4065C67.5055 26.4065 67.8846 26.3471 68.2358 26.2279C68.588 26.1096 68.8887 25.9196 69.1385 25.6578C69.3887 25.397 69.5844 25.0567 69.7251 24.6369C69.8657 24.2176 69.936 23.7069 69.936 23.1048V22.7723ZM64.919 30.1832C64.9813 30.4998 65.0714 30.7533 65.1886 30.9433C65.3054 31.1333 65.4618 31.2836 65.6575 31.3946C65.8527 31.5052 66.0872 31.5805 66.3609 31.6202C66.6341 31.6595 66.9664 31.6796 67.3571 31.6796C67.9667 31.6796 68.4433 31.5645 68.7873 31.3352C69.1308 31.1054 69.3851 30.8008 69.5492 30.4207C69.7133 30.0407 69.8147 29.605 69.854 29.1143C69.8927 28.6237 69.9126 28.1167 69.9126 27.5941V27.2141C69.5059 27.8161 68.9866 28.271 68.3535 28.5799C67.7206 28.8887 67.0056 29.043 66.208 29.043C64.4889 29.043 63.2036 28.4812 62.3519 27.3566C61.4998 26.2325 61.0742 24.7201 61.0742 22.8199C61.0742 21.9172 61.195 21.0858 61.4376 20.3258C61.6797 19.5652 62.0273 18.9124 62.4808 18.3661C62.934 17.8198 63.4925 17.3922 64.1571 17.0835C64.8212 16.7747 65.5673 16.6204 66.3955 16.6204C67.0524 16.6204 67.6891 16.7473 68.3067 17.0004C68.9239 17.2539 69.4906 17.7207 70.0063 18.4018V17.0004H73.1948V27.6654C73.1948 28.7105 73.0893 29.6406 72.8783 30.4564C72.6673 31.2712 72.3309 31.9646 71.8702 32.5347C71.4089 33.1048 70.807 33.5356 70.0649 33.8292C69.3225 34.122 68.4198 34.2686 67.3571 34.2686C66.3725 34.2686 65.5321 34.1851 64.8365 34.0193C64.1409 33.853 63.5669 33.5995 63.1138 33.2592C62.6603 32.9184 62.3127 32.4909 62.0706 31.9761C61.8281 31.4613 61.668 30.8638 61.59 30.1832H64.919Z" fill="#090A0B"/>
<path d="M76.5 12.4399H87.4952V15.4803H79.9932V19.4708H87.0493V22.5112H79.9932V29.3995H76.5V12.4399Z" fill="#090A0B"/>
<path d="M94.9041 27.1187C95.8418 27.1187 96.5411 26.7783 97.0024 26.0977C97.4626 25.4167 97.6935 24.4428 97.6935 23.1756C97.6935 21.9089 97.4626 20.9428 97.0024 20.2778C96.5411 19.6127 95.8418 19.2801 94.9041 19.2801C93.9664 19.2801 93.2666 19.6127 92.8058 20.2778C92.3446 20.9428 92.1147 21.9089 92.1147 23.1756C92.1147 24.4583 92.3405 25.4363 92.7941 26.1091C93.2473 26.7824 93.9506 27.1187 94.9041 27.1187ZM94.9041 29.7789C92.9348 29.7789 91.4109 29.2088 90.3325 28.0688C89.2541 26.9286 88.7148 25.2979 88.7148 23.1756C88.7148 22.1625 88.8591 21.2481 89.1486 20.4322C89.4375 19.6168 89.8519 18.928 90.3911 18.3657C90.9307 17.8039 91.5827 17.3722 92.3487 17.0712C93.1143 16.7706 93.9664 16.6204 94.9041 16.6204C95.8572 16.6204 96.7169 16.7706 97.483 17.0712C98.2485 17.3722 98.9014 17.8039 99.4408 18.3657C99.9793 18.928 100.39 19.6168 100.671 20.4322C100.952 21.2481 101.094 22.1625 101.094 23.1756C101.094 24.2053 100.949 25.1279 100.66 25.9429C100.37 26.7587 99.956 27.4516 99.4166 28.0217C98.8781 28.5918 98.2252 29.0271 97.4597 29.3277C96.6935 29.6282 95.8418 29.7789 94.9041 29.7789Z" fill="#090A0B"/>
<path d="M105.595 23.0332L101.585 17H105.454L107.54 20.5387L109.885 17H113.308L109.346 22.8431L113.613 29.399H109.814L107.33 25.361L104.727 29.399H101.164L105.595 23.0332Z" fill="#090A0B"/>
<path d="M4.02418 22.2969C4.03907 18.7308 5.12471 15.7704 8.40101 12.9269C9.65526 11.8384 11.1169 10.2648 11.7206 9.28865C14.8603 13.8359 11.5298 18.6112 10.7625 21.5976C9.99564 24.5837 10.0971 29.236 12.6727 31.8274C9.12281 31.8274 3.99894 28.3055 4.02418 22.2969ZM29.4003 17.9072C29.3901 17.2125 27.8275 17.3184 26.4745 17.0357C23.6788 16.4524 22.3533 13.951 21.279 9.6463C21.0513 8.73411 20.3953 8.39928 19.5415 9.20779C18.5427 10.1533 17.0166 11.4301 16.4198 11.9293C16.0235 8.93052 13.7805 5.52473 12.0434 4.1393C11.8229 3.96389 11.4776 3.98171 11.3324 4.22472C10.5236 5.5768 9.2504 7.32126 7.33971 9.02782C2.38085 13.4559 -0.606006 18.1594 0.57972 24.5169C1.98591 31.9873 7.9204 35.5447 14.9707 35.1194C16.9364 35.0012 18.3548 34.6183 19.2732 34.2068C19.6442 34.0405 19.7006 33.5006 19.3435 33.3051C17.3562 32.2156 14.0528 29.2154 14.0623 25.5972C14.07 22.5692 15.7547 19.0282 16.5482 16.1733C17.3665 15.5457 18.7222 14.3745 19.3656 13.8017C19.8922 15.4538 20.7136 17.5985 22.9643 18.8496C18.4454 19.8806 17.1132 23.5395 17.5555 26.4003C17.844 28.269 19.2705 29.4123 19.7195 29.2438C20.1699 29.0743 20.0586 27.3705 20.1126 26.0901C20.2465 22.9296 21.925 22.2741 26.548 20.5352C28.222 19.9052 29.4145 18.9327 29.4003 17.9072Z" fill="#090A0B"/>
</g>
<defs>
<clipPath id="clip0_6789_20211">
<rect width="113" height="40" fill="white"/>
</clipPath>
</defs>
</svg>
